X:178
T:Whites Snowdon. JGi.178
M:2/4
L:1/8
Q:1/4=110
S:Joshua Gibbons MS,1823,Tealby,Lincs.
R:Country Dance
O:Tealby,Lincolnshire
Z:VMP/R.Greig, 2009
K:C
g|c’2ge|c2de|fAdc|cBAG|c’2ge|c2de|fdcB|c3:|
z2|ed df|efge|d2ef|e2c’2|d2ef|gabc’|bag^f|g2ab|
c’2ge|c2de|fcdc|cBAG|c’2ge|c2de|fdcB|c3|]

